X: 23253
T: Leaving Friday Harbour
R: waltz
M: 3/4
K: Dmajor
A2|"D"f4 ed|[M:2/4]"D/C#"ef "G/B"A2|[M:3/4]"D" f3f ed|"G/B"ef "D"a3f|
"G"(3ggg gf ed|"Gmaj7"ef B4|"Em7".d2 dcde|"A7"c/d/c BA"/C#"de|
"D"f4 ed|[M:2/4]"D/C#"ef"G/B"A2|[M:3/4]"D"f3f ed|"G/B"ef "D"a3f|
"G"(3ggg gf ed|"Gmaj7"ef B3d|"A7"c/d/c BA"/C#"ef|"D"d4:|
|:dc|"A7"c2 Ac"/C#"eg|"Dalt"gf a3f|"G"g2 B3g|"D"gf ef d/e/f|
"G"g2 B3g|"D"gf ef df|"Em"e2 B2 ef|"G" ed- dc BA|
[1 "A7"c2 Ac"/C#"eg|"Dalt"gf a3f|"G"g2 B3g|"D" gf ef dc|
"G"B2 GB B/c/d|"D"Ad f3a|"A7"ge cA"/C#"ef|"D" d4:|
[2 "D" f4 ed|[M:2/4]"D/C#" ef "G/B" A2|[M:3/4]"D"f3f ed|"G/B" ef "D" a3f|
"G"(3ggg gf ed|"Gmaj7"ef B3d|"A7"c/d/c BA"/C#"ef|"D" d4||

